public/jpaas.svg

<svg width="87" height="73" viewBox="0 0 87 73" fill="none" xmlns="http://www.w3.org/2000/svg">
<g clip-path="url(#clip0_945_1056)">
<path fill-rule="evenodd" clip-rule="evenodd" d="M26.8726 69.9748C23.3306 72.0228 20.1096 72.2158 17.7916 70.8748L17.7276 70.8688L4.52761 63.2168C3.78266 62.773 3.12711 62.1941 2.59463 61.5098C0.53363 58.7468 0.469586 54.5668 1.04959 51.3098C2.39763 44.681 5.93642 38.6986 11.0966 34.3248L11.6766 33.8798C11.8056 33.1638 11.8706 32.4958 11.9986 31.7868C13.7376 21.5968 20.8226 10.1768 29.9046 4.92778C33.4466 2.86678 38.0206 1.48177 41.9486 3.21477L42.3996 3.40178L45.0996 4.99278C47.6116 2.79278 50.9606 0.709768 54.3746 0.766768C55.2132 0.77816 56.0427 0.942177 56.8226 1.25078L57.2086 1.41179L62.9416 4.74779L63.5856 4.62578C64.9227 4.3708 66.3043 4.48914 67.5786 4.96779L68.0296 5.16078L81.2986 12.8188C83.8106 14.0688 85.4206 17.0318 85.4206 21.3468C85.4206 29.5518 79.6886 39.5298 72.5386 43.6258L26.8726 69.9748Z" fill="#F2F5FC"/>
<path fill-rule="evenodd" clip-rule="evenodd" d="M38.0818 3.16699C35.3205 3.29041 32.6371 4.11982 30.2878 5.57599C21.7878 10.503 14.5728 21.331 12.7048 31.907C12.6408 32.607 12.5118 33.252 12.4468 33.948C12.4294 34.1482 12.3373 34.3346 12.1888 34.47L11.6088 34.915C6.55497 39.1398 3.10007 44.9677 1.81878 51.429C1.49578 53.323 0.918794 58.044 3.23479 61.052C3.68465 61.6648 4.25454 62.1796 4.90978 62.565L18.1098 70.204C20.2998 71.473 23.2628 71.157 26.4828 69.315L72.1488 42.959C79.0408 38.991 84.6488 29.291 84.6488 21.337C84.6488 17.511 83.2968 14.645 80.9778 13.485L67.3238 5.65298C66.1695 5.23319 64.9233 5.13302 63.7168 5.36301L63.1368 5.479C62.9609 5.52045 62.7757 5.49061 62.6218 5.396L56.5028 1.931C55.8263 1.66121 55.105 1.52141 54.3768 1.51898C50.7058 1.44798 47.3558 4.01899 45.6168 5.55099C45.5056 5.65455 45.3635 5.71874 45.2123 5.73373C45.0611 5.74873 44.9091 5.7137 44.7798 5.634L41.6238 3.888C40.5062 3.40255 39.2993 3.15658 38.0808 3.16599L38.0818 3.16699ZM21.1418 72.491C19.8329 72.5078 18.5434 72.1743 17.4068 71.525L4.13781 63.86C3.30798 63.3798 2.58489 62.7354 2.01281 61.966C-0.628191 58.475 -0.0482397 53.245 0.33776 51.166C1.68711 44.3484 5.32502 38.1964 10.6488 33.729L10.9708 33.465C11.0348 32.847 11.1638 32.265 11.2288 31.649C13.1608 20.661 20.6968 9.40298 29.5208 4.26898C32.1618 2.69798 37.4438 0.391986 42.2738 2.51099L42.7248 2.711L45.0428 4.05701C47.0428 2.38901 50.5168 0 54.2538 0C54.3178 0 54.3178 0.00598145 54.3828 0.00598145C55.3305 0.0158474 56.2686 0.197104 57.1518 0.540985L57.5378 0.714996L63.0768 3.94098L63.4628 3.87698C64.9508 3.59051 66.4892 3.72241 67.9068 4.258L68.3578 4.45798L81.6898 12.158C84.5248 13.558 86.1988 16.911 86.1988 21.343C86.1988 29.781 80.2728 40.067 72.9308 44.279L27.2648 70.635C25.4205 71.7761 23.3092 72.4159 21.1418 72.491Z" fill="#2979E4"/>
<path fill-rule="evenodd" clip-rule="evenodd" d="M26.8732 69.9745C19.7882 74.0745 13.9922 70.7415 13.9922 62.5355C13.9922 55.0835 18.7592 46.1755 24.9412 41.5355C26.1012 30.4575 33.8302 17.9685 43.1692 12.5835C49.2882 9.01546 54.7632 9.39647 58.1122 12.8995C59.2325 11.8591 60.4639 10.9453 61.7842 10.1745C67.4512 6.91547 72.2172 8.35848 73.9572 13.2025C80.3972 10.2655 85.4222 13.6735 85.4222 21.3435C85.4222 29.5485 79.6902 39.5265 72.5402 43.6225L26.8732 69.9745Z" fill="white"/>
<path fill-rule="evenodd" clip-rule="evenodd" d="M51.3488 10.8529C48.5863 10.9477 45.8978 11.7697 43.5547 13.2359C34.5377 18.4359 26.8727 30.6359 25.7127 41.6079C25.7063 41.7155 25.6736 41.82 25.6175 41.9121C25.5614 42.0041 25.4835 42.081 25.3907 42.1359C19.3357 46.6829 14.7628 55.4559 14.7628 62.5359C14.7628 66.2259 15.9868 68.9509 18.1118 70.2139C20.3668 71.4759 23.2647 71.1599 26.4857 69.3139L72.1517 42.9579C79.0437 38.9909 84.6517 29.2899 84.6517 21.3359C84.6517 17.7869 83.5517 15.1139 81.4957 13.7929C79.6277 12.5819 77.0517 12.6139 74.2817 13.8839C74.076 13.9697 73.845 13.9718 73.6378 13.8899C73.5449 13.8483 73.4623 13.7868 73.3956 13.71C73.329 13.6331 73.2798 13.5427 73.2517 13.4449C72.9843 12.5633 72.521 11.7537 71.8964 11.0765C71.2717 10.3994 70.5019 9.87239 69.6447 9.53492C67.5837 8.77492 64.9447 9.23491 62.1737 10.8229C60.8998 11.5665 59.7117 12.4482 58.6307 13.4519C58.5612 13.5183 58.4791 13.5701 58.3892 13.6042C58.2993 13.6383 58.2035 13.654 58.1075 13.6503C58.0114 13.6467 57.9171 13.6238 57.83 13.583C57.743 13.5423 57.665 13.4844 57.6007 13.4129C56.7908 12.5798 55.8182 11.9223 54.7433 11.4812C53.6685 11.0401 52.5143 10.8248 51.3527 10.8489L51.3488 10.8529ZM21.1407 72.4919C19.8319 72.5087 18.5423 72.1752 17.4057 71.5259C14.7007 69.9799 13.2188 66.7859 13.2188 62.5339C13.2188 54.9989 17.8557 46.0519 24.2327 41.1249C25.5207 29.7949 33.4427 17.2929 42.7827 11.9249C48.7727 8.48593 54.4408 8.47293 58.1768 11.8599C59.1709 10.9766 60.2498 10.1934 61.3977 9.52192C64.5537 7.69992 67.6447 7.20392 70.1577 8.12192C71.0977 8.48032 71.9542 9.02764 72.6744 9.73008C73.3945 10.4325 73.963 11.2751 74.3447 12.2059C77.3717 11.0339 80.2057 11.1429 82.3307 12.5279C84.8428 14.1379 86.1957 17.2679 86.1957 21.3459C86.1957 29.7839 80.2697 40.0699 72.9277 44.2819L27.2597 70.6319C25.4167 71.774 23.3076 72.4152 21.1407 72.4919Z" fill="#2979E4"/>
<path fill-rule="evenodd" clip-rule="evenodd" d="M24.9434 42.2829C24.8083 42.2831 24.6754 42.2487 24.5574 42.1829L11.2894 34.5309C11.128 34.4187 11.0128 34.2517 10.9654 34.0609C10.9179 33.8702 10.9414 33.6687 11.0314 33.4939C11.1319 33.3211 11.2967 33.195 11.4898 33.1431C11.6829 33.0913 11.8887 33.1178 12.0623 33.2169L25.3303 40.8749C25.4194 40.9211 25.4985 40.9845 25.5629 41.0614C25.6274 41.1382 25.6759 41.2271 25.7059 41.3229C25.7358 41.4186 25.7465 41.5194 25.7373 41.6193C25.7281 41.7192 25.6992 41.8162 25.6523 41.9049C25.5705 42.0175 25.4642 42.11 25.3414 42.1755C25.2185 42.241 25.0824 42.2777 24.9434 42.2829Z" fill="#2979E4"/>
<path fill-rule="evenodd" clip-rule="evenodd" d="M58.306 13.3384C58.1712 13.3358 58.039 13.3015 57.92 13.2384L44.7809 5.63843C44.601 5.54338 44.466 5.38088 44.4057 5.1865C44.3453 4.99211 44.3645 4.78172 44.459 4.60144C44.5071 4.5143 44.5723 4.43776 44.6507 4.37638C44.7291 4.31499 44.819 4.27003 44.9152 4.24417C45.0113 4.21832 45.1116 4.2121 45.2102 4.22589C45.3088 4.23968 45.4036 4.2732 45.4889 4.32444L58.628 11.9244C58.8082 12.0193 58.9433 12.1818 59.0037 12.3763C59.064 12.5707 59.0447 12.7812 58.9499 12.9614C58.8863 13.0762 58.7929 13.1718 58.6796 13.2382C58.5663 13.3045 58.4372 13.3391 58.306 13.3384Z" fill="#2979E4"/>
<path fill-rule="evenodd" clip-rule="evenodd" d="M70.4784 9.84128C70.3625 9.84817 70.2481 9.81261 70.1565 9.74127L62.6204 5.39328C62.4407 5.29804 62.3059 5.1355 62.2456 4.94119C62.1852 4.74689 62.2043 4.53662 62.2985 4.35629C62.402 4.18663 62.5672 4.06369 62.7595 4.01334C62.9518 3.96299 63.156 3.98913 63.3294 4.08628L70.8655 8.42728C70.9544 8.47376 71.0332 8.53732 71.0976 8.61432C71.1619 8.69132 71.2104 8.78024 71.2403 8.87601C71.2702 8.97177 71.2809 9.07248 71.2719 9.1724C71.2628 9.27231 71.2341 9.36947 71.1875 9.45828C71.1062 9.57184 71.0001 9.66535 70.8772 9.73172C70.7544 9.79809 70.618 9.83557 70.4784 9.84128Z" fill="#2979E4"/>
</g>
<defs>
<clipPath id="clip0_945_1056">
<rect width="86.195" height="72.492" fill="white"/>
</clipPath>
</defs>
</svg>

<svg xmlns="http://www.w3.org/2000/svg" width="87" height="73" fill="none" viewBox="0 0 87 73"><g fill-rule="evenodd" clip-path="url(#a)" clip-rule="evenodd"><path fill="#f2f5fc" d="M26.873 69.975c-3.542 2.048-6.763 2.24-9.081.9l-.064-.006-13.2-7.652a7 7 0 0 1-1.933-1.707C.534 58.747.47 54.567 1.05 51.31a30.14 30.14 0 0 1 10.047-16.985l.58-.445c.129-.716.194-1.384.322-2.093 1.739-10.19 8.824-21.61 17.906-26.86 3.542-2.06 8.116-3.445 12.044-1.712l.45.187 2.7 1.59c2.513-2.2 5.862-4.282 9.276-4.225a6.9 6.9 0 0 1 2.448.484l.386.16 5.733 3.337.644-.122a7.4 7.4 0 0 1 3.993.342l.45.193 13.27 7.658c2.512 1.25 4.122 4.213 4.122 8.528 0 8.205-5.732 18.183-12.882 22.279z"/><path fill="#2979e4" d="M38.082 3.167a16.16 16.16 0 0 0-7.794 2.409c-8.5 4.927-15.715 15.755-17.583 26.331-.064.7-.193 1.345-.258 2.041a.8.8 0 0 1-.258.522l-.58.445a28.84 28.84 0 0 0-9.79 16.514c-.323 1.894-.9 6.615 1.416 9.623a5.6 5.6 0 0 0 1.675 1.513l13.2 7.639c2.19 1.269 5.153.953 8.373-.889l45.666-26.356c6.892-3.968 12.5-13.668 12.5-21.622 0-3.826-1.352-6.692-3.671-7.852L67.324 5.653a6.8 6.8 0 0 0-3.607-.29l-.58.116a.68.68 0 0 1-.515-.083l-6.12-3.465a5.8 5.8 0 0 0-2.125-.412c-3.671-.071-7.021 2.5-8.76 4.032a.694.694 0 0 1-.837.083l-3.156-1.746a8.7 8.7 0 0 0-3.543-.722zm-16.94 69.324a7.34 7.34 0 0 1-3.735-.966L4.137 63.86a7.05 7.05 0 0 1-2.124-1.894c-2.641-3.491-2.061-8.721-1.675-10.8a30.5 30.5 0 0 1 10.31-17.437l.323-.264c.064-.618.193-1.2.258-1.816C13.16 20.661 20.697 9.403 29.52 4.269c2.64-1.571 7.923-3.877 12.753-1.758l.45.2 2.319 1.346c2-1.668 5.474-4.057 9.21-4.057.065 0 .065.006.13.006.947.01 1.886.191 2.769.535l.386.174 5.539 3.226.386-.064a8.2 8.2 0 0 1 4.444.381l.45.2 13.333 7.7c2.835 1.4 4.509 4.753 4.509 9.185 0 8.438-5.926 18.724-13.268 22.936L27.265 70.635a12.46 12.46 0 0 1-6.123 1.856"/><path fill="#fff" d="M26.873 69.975c-7.085 4.1-12.88.767-12.88-7.44 0-7.451 4.766-16.36 10.948-21 1.16-11.077 8.89-23.566 18.228-28.951 6.12-3.569 11.594-3.188 14.943.316a20.8 20.8 0 0 1 3.672-2.726c5.667-3.259 10.433-1.816 12.173 3.029 6.44-2.937 11.465.47 11.465 8.14 0 8.206-5.732 18.184-12.882 22.28z"/><path fill="#2979e4" d="M51.349 10.853a15.7 15.7 0 0 0-7.794 2.383c-9.017 5.2-16.682 17.4-17.842 28.372a.66.66 0 0 1-.322.528c-6.055 4.547-10.628 13.32-10.628 20.4 0 3.69 1.224 6.415 3.349 7.678 2.255 1.262 5.153.946 8.374-.9l45.666-26.356c6.892-3.967 12.5-13.668 12.5-21.622 0-3.55-1.1-6.222-3.156-7.543-1.868-1.211-4.444-1.18-7.214.09a.86.86 0 0 1-.644.007.7.7 0 0 1-.386-.445 6.1 6.1 0 0 0-3.607-3.91c-2.061-.76-4.7-.3-7.471 1.288a20 20 0 0 0-3.543 2.629.72.72 0 0 1-1.03-.04 8.47 8.47 0 0 0-6.248-2.563zM21.14 72.492a7.34 7.34 0 0 1-3.735-.966c-2.705-1.546-4.187-4.74-4.187-8.992 0-7.535 4.637-16.482 11.014-21.41 1.288-11.33 9.21-23.831 18.55-29.2 5.99-3.438 11.658-3.451 15.394-.064a20.2 20.2 0 0 1 3.22-2.338c3.157-1.822 6.248-2.318 8.76-1.4a7.36 7.36 0 0 1 4.188 4.084c3.027-1.172 5.86-1.063 7.986.322 2.512 1.61 3.865 4.74 3.865 8.818 0 8.438-5.926 18.724-13.268 22.936L27.26 70.632a12.45 12.45 0 0 1-6.12 1.86"/><path fill="#2979e4" d="M24.943 42.283a.8.8 0 0 1-.386-.1L11.29 34.53a.81.81 0 0 1-.258-1.037.76.76 0 0 1 1.031-.277l13.268 7.658a.76.76 0 0 1 .322 1.03.92.92 0 0 1-.709.378M58.306 13.338a.86.86 0 0 1-.386-.1l-13.14-7.6a.77.77 0 0 1-.321-1.037.74.74 0 0 1 1.03-.277l13.139 7.6a.77.77 0 0 1 .322 1.037.73.73 0 0 1-.644.377M70.478 9.841a.48.48 0 0 1-.322-.1L62.62 5.393a.77.77 0 0 1-.322-1.037.77.77 0 0 1 1.031-.27l7.536 4.341a.764.764 0 0 1 .323 1.031.92.92 0 0 1-.71.383"/></g><defs><clipPath id="a"><path fill="#fff" d="M0 0h86.195v72.492H0z"/></clipPath></defs></svg>
